X: 2411
T: Adieu Mon Ami
P: Miss Margaret Gordon
C:R. Mackintosh
R:Strathspey (8x32)
B:RSCDS 24-11
Z:Anselm Lingnau <anselm@strathspey.org>
M:C
L:1/8
K:Gm
d|"Gm"B<GG>A "F"F>A c<A|"Gm"B<GG>A B>c d<g|\
  "Gm"B<GG>A "F"F>A c<d|"Gm"B<G "D7"A>^F "Gm"G3 d|
  "Gm"B<GG>A "F"F>A c<A|"Gm"B<GG>A B>c d<g|\
  "Gm"B<GG>A "F"F>A c<d|"Gm"B<G "D7"A>^F "Gm"G3||
d|"Gm"[gB]<[dG][dG]>[fB] "F"[AF]<F [cF]<A|"Gm"[gB]<d d>=e "F"f<g a<g|\
  "Bb"f<dd>f "F"F>A c<d|"Eb"[BD]G "D"[AC]^F "Gm"[G2B,2] G^f|
  "Gm"[gB]<[dG][dG]>[=fB] "F"A>F c<A|"Gm"[gd]<d d>=e "Dm"f>a g<a|\
  "Gm"[fd]>g [dB]<g "F"[cA]<f [AF]<c|\
                    "Gm"[dG]>B "D7"d/c/B/A/ "Gm"[G2D2B,2][GDB,]|]
%%center Book24/2411-Adieu_Mon_Ami-AL.abc

%%newpage
%%center OTHER TRANSCRIPTIONS
%%sep 3 1 500
%%sep 1 1 500

%%sep 1 1 500
%%sep 1 1 500

